svgs/duotone/circle-9.svg

<svg xmlns="http://www.w3.org/2000/svg" viewBox="0 0 512 512"><!-- Font Awesome Pro 6.0.0-alpha2 by @fontawesome - https://fontawesome.com License - https://fontawesome.com/license (Commercial License) --><defs><style>.fa-secondary{opacity:.4}</style></defs><path d="M256 16C123.451 16 16 123.451 16 256S123.451 496 256 496S496 388.549 496 256S388.549 16 256 16ZM311.719 308.406L231.781 378.094C227.219 382.062 221.594 384 216 384C209.312 384 202.656 381.219 197.906 375.781C189.188 365.781 190.25 350.625 200.219 341.906L229.979 315.963C189.732 304.533 160 267.859 160 224C160 171.062 203.062 128 256 128S352 171.062 352 224C352 265.301 324.451 297.289 311.719 308.406ZM256 176C229.531 176 208 197.531 208 224S229.531 272 256 272C277.062 272 296 257.906 302.031 237.719C303.344 233.312 304 228.719 304 224C304 197.531 282.469 176 256 176Z" class="fa-secondary"/><path d="M256 128C203.062 128 160 171.062 160 224C160 267.859 189.732 304.533 229.979 315.963L200.219 341.906C190.25 350.625 189.187 365.781 197.906 375.781C202.656 381.219 209.312 384 216 384C221.594 384 227.219 382.062 231.781 378.094L311.719 308.406C324.451 297.289 352 265.301 352 224C352 171.062 308.938 128 256 128ZM302.031 237.719C296 257.906 277.062 272 256 272C229.531 272 208 250.469 208 224S229.531 176 256 176S304 197.531 304 224C304 228.719 303.344 233.312 302.031 237.719Z" class="fa-primary"/></svg>

<svg xmlns="http://www.w3.org/2000/svg" viewBox="0 0 512 512"><!--! Font Awesome Pro 6.0.0-alpha3 by @fontawesome - https://fontawesome.com License - https://fontawesome.com/license (Commercial License) --><defs><style>.fa-secondary{opacity:.4}</style></defs><path class="fa-primary" d="M256 128C203.1 128 160 171.1 160 224c0 43.86 29.73 80.53 69.98 91.96l-29.76 25.94c-9.969 8.719-11.03 23.88-2.312 33.88C202.7 381.2 209.3 384 216 384c5.594 0 11.22-1.938 15.78-5.906l79.94-69.69C324.5 297.3 352 265.3 352 224C352 171.1 308.9 128 256 128zM302 237.7C296 257.9 277.1 272 256 272C229.5 272 208 250.5 208 224S229.5 176 256 176s48 21.53 48 48C304 228.7 303.3 233.3 302 237.7z"/><path class="fa-secondary" d="M256 176C229.5 176 208 197.5 208 224S229.5 272 256 272c21.06 0 40-14.09 46.03-34.28C303.3 233.3 304 228.7 304 224C304 197.5 282.5 176 256 176zM256 0C114.6 0 0 114.6 0 256s114.6 256 256 256s256-114.6 256-256S397.4 0 256 0zM311.7 308.4l-79.94 69.69C227.2 382.1 221.6 384 216 384c-6.688 0-13.34-2.781-18.09-8.219c-8.719-10-7.656-25.16 2.312-33.88l29.76-25.94C189.7 304.5 160 267.9 160 224c0-52.94 43.06-96 96-96s96 43.06 96 96C352 265.3 324.5 297.3 311.7 308.4z"/></svg>
